X: 320
%
U:~=!turn!
T: Lady Nelly Wemyes's Jig
C:
O:Scotland
B:Keith Norman MacDonald : "The Skye collection of the best reels & strathspeys extant" : 1887
Z:Ralph Palmer
R:Jig
M:6/8
L:1/8
K:B dorian
B !segno!|: Tc2 e- ega | cAc e2 d | cde- ef=g | B=GB d2 B | ~c2 e- efg | {fg}a>gf edc | !wedge!d(.f.d) !wedge!c(.a.c) | B=GB d2 B ::
acA ecA | acA efg | acA ecA | B=GB d2 B | acA ecA | agf edc | !wedge!d(.f.d) !wedge!c(.a.c) | B=GB d2 B !segno!:|


